X:11
T:Pastre, pastresso
T:Bergers, bergres
M:2/4
L:1/8
K:Em
e2 fg | f2 B2 | ef ge | ff/g/ ff | e2 fg | f2 B2 | ef ge | f2z2 |
e2 ee | e2 d2 | ee dc | BB/c/ BB | e2 ee | e2 d2 |ee BB | e2 z2 |]
